packages/blockchain-info-components/src/Images/img/close-error.svg

<svg fill="none" height="58" viewBox="0 0 58 58" width="58" xmlns="http://www.w3.org/2000/svg"><path d="m29.0007 4.83325c-13.3642 0-24.16672 10.80255-24.16672 24.16665 0 13.3642 10.80252 24.1667 24.16672 24.1667 13.3641 0 24.1666-10.8025 24.1666-24.1667 0-13.3641-10.8025-24.16665-24.1666-24.16665zm12.0833 32.84255-3.4075 3.4075-8.6758-8.6759-8.6759 8.6759-3.4075-3.4075 8.6759-8.6759-8.6759-8.6758 3.4075-3.4075 8.6759 8.6758 8.6758-8.6758 3.4075 3.4075-8.6758 8.6758z" fill="#cf1726"/></svg>

<svg width="58" height="58" viewBox="0 0 58 58" fill="none" xmlns="http://www.w3.org/2000/svg">
<path d="M29.0007 4.83325C15.6365 4.83325 4.83398 15.6358 4.83398 28.9999C4.83398 42.3641 15.6365 53.1666 29.0007 53.1666C42.3648 53.1666 53.1673 42.3641 53.1673 28.9999C53.1673 15.6358 42.3648 4.83325 29.0007 4.83325ZM41.084 37.6758L37.6765 41.0833L29.0007 32.4074L20.3248 41.0833L16.9173 37.6758L25.5932 28.9999L16.9173 20.3241L20.3248 16.9166L29.0007 25.5924L37.6765 16.9166L41.084 20.3241L32.4082 28.9999L41.084 37.6758Z" fill="#CF1726"/>
</svg>
